src/images_karasa_jaga_svg/sd/cmd/transition-wheel.svg

<svg height="32" viewBox="0 0 32 32" width="32" xmlns="http://www.w3.org/2000/svg" xmlns:xlink="http://www.w3.org/1999/xlink"><radialGradient id="a" cx="100.88867" cy="155.99673" gradientTransform="matrix(4.3885832 0 0 3.8888885 -340.15832 -521.43169)" gradientUnits="userSpaceOnUse" r="40"><stop offset="0" stop-color="#fff"/><stop offset=".11366145" stop-color="#bdbebf"/><stop offset=".20296688" stop-color="#ececec"/><stop offset=".2363" stop-color="#fafafa"/><stop offset=".38818121" stop-color="#fff"/><stop offset=".5313" stop-color="#fafafa"/><stop offset=".8449" stop-color="#ebecec"/><stop offset="1" stop-color="#e1e2e3"/></radialGradient><filter id="b" color-interpolation-filters="sRGB" height="1.065877" width="1.055085" x="-.027543" y="-.032939"><feGaussianBlur stdDeviation="1.3760599"/></filter><linearGradient id="c" gradientUnits="userSpaceOnUse" x1="67.903954" x2="67.903954" y1="31.783545" y2="-32.216457"><stop offset="0" stop-color="#e9eaea"/><stop offset=".5" stop-color="#fff"/><stop offset="1" stop-color="#fefefe"/></linearGradient><radialGradient id="d" cx="67.903954" cy="52.72472" gradientTransform="matrix(1 0 0 .68 0 -.069266)" gradientUnits="userSpaceOnUse" r="50"><stop offset="0" stop-color="#ffea00"/><stop offset="1" stop-color="#ffa000"/></radialGradient><g transform="matrix(.25 0 0 .25 -.975989 16.054114)"><path d="m91.808594-48.839841h-.002l-76.810547.240235c-4.577647.0022-8.2824795 3.747105-8.2832034 8.318359l-.0129652 81.874107c-.0007241 4.572585 3.7145276 8.287109 8.2871096 8.287109.0013.000002.0026.000002.0039 0l105.902392-.263671c4.57258 0 8.28711-3.714526 8.28711-8.28711l-.002-13.640625.013-47.90536.002-20.328125c0-4.572582-3.70762-8.318359-8.28711-8.318359z" fill="#141414" filter="url(#b)"/><path d="m14.625-48c-3.66801.012514-6.625 2.956969-6.625 6.625l-.096045 33.158544.08308 49.496816c.00616 3.668025 2.95698 6.634065 6.625 6.625l49.29192-.121816 57.364325-.141515c3.66802-.009 6.62443-2.95697 6.625-6.625l.013-82.65536c.00058-3.668031-2.95697-6.625-6.625-6.625h-9.375-8-12.096075z" fill="#fff"/><path d="m115.69727-44.224609-15.58008.0078-85.857424.255859c-1.278069.0038-2.220507.943724-2.220704 2.210938l-.01296 83.40536c-.000197 1.267223.944877 2.214022 2.203126 2.210938l107.406242-.26366c1.27618-.0031 2.21856-.943712 2.21875-2.210938l.013-83.40536c.0002-1.267225-.94371-2.210937-2.21094-2.210937z" fill="url(#a)"/><rect fill="#8c8c8c" height="72" rx="3.999999" ry="4.000001" width="104" x="15.903955" y="-36.216457"/><rect fill="url(#c)" height="68" rx="3.999999" ry="4.000001" width="100" x="17.903955" y="-34.216457"/><path d="m67.903955-.216456v-34l46.000005-.000001c2.216 0 4 1.784 4 4.000001v59.999997c0 2.216001-1.784 4.000002-4 4.000002l-2.00001.000001z" fill="url(#d)"/><path d="m7.5 13.5-1.5 6.5 2.3734674-1.285194c1.4976056 2.996446 4.3238146 5.196757 8.1486296 5.200942 1.57523-.000309 5.843138-1.028237 6.897748-2.183729l-2.941942-2.265165c-.730966.314457-3.169228 1.031185-3.977903 1.033146-2.314555-.002155-4.299285-1.320634-5.101562-3.199219l2.601562-1.300781z" fill="#ffa800" transform="matrix(4 0 0 4 3.903955 -64.216456)"/></g></svg>

<?xml version="1.0" encoding="UTF-8" standalone="no"?>
<!-- Created with Inkscape (http://www.inkscape.org/) -->

<svg
   xmlns:dc="http://purl.org/dc/elements/1.1/"
   xmlns:cc="http://creativecommons.org/ns#"
   xmlns:rdf="http://www.w3.org/1999/02/22-rdf-syntax-ns#"
   xmlns:svg="http://www.w3.org/2000/svg"
   xmlns="http://www.w3.org/2000/svg"
   xmlns:xlink="http://www.w3.org/1999/xlink"
   xmlns:sodipodi="http://sodipodi.sourceforge.net/DTD/sodipodi-0.dtd"
   xmlns:inkscape="http://www.inkscape.org/namespaces/inkscape"
   version="1.1"
   id="svg2"
   width="32"
   height="32"
   viewBox="0 0 32 32"
   sodipodi:docname="transition-wheel.svg"
   inkscape:version="0.92.3 (unknown)"
   inkscape:export-filename="/home/rizmut/Dokumen/Rizmut/Github/libreoffice-style-karasa-jaga/build/images_karasa_jaga/sd/cmd/transition-wheel.png"
   inkscape:export-xdpi="96"
   inkscape:export-ydpi="96">
  <metadata
     id="metadata8">
    <rdf:RDF>
      <cc:Work
         rdf:about="">
        <dc:format>image/svg+xml</dc:format>
        <dc:type
           rdf:resource="http://purl.org/dc/dcmitype/StillImage" />
        <dc:title></dc:title>
      </cc:Work>
    </rdf:RDF>
  </metadata>
  <defs
     id="defs6">
    <linearGradient
       inkscape:collect="always"
       id="linearGradient2334">
      <stop
         style="stop-color:#e9eaea;stop-opacity:1;"
         offset="0"
         id="stop2330" />
      <stop
         id="stop2338"
         offset="0.5"
         style="stop-color:#ffffff;stop-opacity:1" />
      <stop
         style="stop-color:#fefefe;stop-opacity:1"
         offset="1"
         id="stop2332" />
    </linearGradient>
    <linearGradient
       y2="0"
       x2="28"
       y1="57.5"
       x1="28"
       gradientUnits="userSpaceOnUse"
       id="linearGradient15967">
      <stop
         id="stop15969"
         style="stop-color:white;stop-opacity:1;"
         offset="0" />
      <stop
         id="stop15971"
         style="stop-color:white;stop-opacity:0;"
         offset="1" />
    </linearGradient>
    <linearGradient
       y2="0"
       x2="28"
       y1="57.5"
       x1="28"
       gradientUnits="userSpaceOnUse"
       id="linearGradient3287">
      <stop
         id="stop3289"
         style="stop-color:#FFEA00"
         offset="0" />
      <stop
         id="stop3291"
         style="stop-color:#ffa000;stop-opacity:1;"
         offset="1" />
    </linearGradient>
    <radialGradient
       inkscape:collect="always"
       xlink:href="#XMLID_8_"
       id="radialGradient3726"
       gradientUnits="userSpaceOnUse"
       gradientTransform="matrix(4.3885832,0,0,3.8888885,-340.15832,-521.43169)"
       cx="100.88867"
       cy="155.99673"
       fx="100.88867"
       fy="155.99673"
       r="40" />
    <radialGradient
       id="XMLID_8_"
       cx="102"
       cy="112.3047"
       r="139.55859"
       gradientUnits="userSpaceOnUse">
      <stop
         offset="0"
         style="stop-color:#ffffff;stop-opacity:1;"
         id="stop37" />
      <stop
         offset="0.11366145"
         style="stop-color:#bdbebf;stop-opacity:1;"
         id="stop41" />
      <stop
         offset="0.20296688"
         style="stop-color:#ECECEC"
         id="stop47" />
      <stop
         offset="0.2363"
         style="stop-color:#FAFAFA"
         id="stop49" />
      <stop
         offset="0.38818121"
         style="stop-color:#FFFFFF"
         id="stop51" />
      <stop
         offset="0.5313"
         style="stop-color:#FAFAFA"
         id="stop53" />
      <stop
         offset="0.8449"
         style="stop-color:#EBECEC"
         id="stop55" />
      <stop
         offset="1"
         style="stop-color:#E1E2E3"
         id="stop57" />
    </radialGradient>
    <clipPath
       clipPathUnits="userSpaceOnUse"
       id="clipPath3826">
      <path
         inkscape:connector-curvature="0"
         style="fill:none;fill-opacity:0.75;fill-rule:evenodd;stroke:#000000;stroke-width:1px;stroke-linecap:butt;stroke-linejoin:miter;stroke-opacity:1"
         d="M 39.881057,36 40,80 H 96 V 36 Z"
         id="path3828"
         sodipodi:nodetypes="ccccc" />
    </clipPath>
    <filter
       inkscape:collect="always"
       style="color-interpolation-filters:sRGB"
       id="filter939"
       x="-0.027542715"
       width="1.0550854"
       y="-0.032938699"
       height="1.0658774">
      <feGaussianBlur
         inkscape:collect="always"
         stdDeviation="1.3760599"
         id="feGaussianBlur941" />
    </filter>
    <linearGradient
       inkscape:collect="always"
       xlink:href="#linearGradient2334"
       id="linearGradient2336"
       x1="67.903954"
       y1="31.783545"
       x2="67.903954"
       y2="-32.216457"
       gradientUnits="userSpaceOnUse" />
    <radialGradient
       inkscape:collect="always"
       xlink:href="#linearGradient3287"
       id="radialGradient901"
       cx="-125.21604"
       cy="-19.496462"
       fx="-125.21604"
       fy="-19.496462"
       r="34.560001"
       gradientTransform="matrix(1,0,0,1.7152778,0,13.945385)"
       gradientUnits="userSpaceOnUse" />
    <radialGradient
       inkscape:collect="always"
       xlink:href="#linearGradient3287"
       id="radialGradient957"
       cx="67.903954"
       cy="52.72472"
       fx="67.903954"
       fy="52.72472"
       r="50"
       gradientTransform="matrix(1,0,0,0.68,0,-0.06926636)"
       gradientUnits="userSpaceOnUse" />
  </defs>
  <sodipodi:namedview
     pagecolor="#ffffff"
     bordercolor="#666666"
     borderopacity="1"
     objecttolerance="10"
     gridtolerance="10"
     guidetolerance="10"
     inkscape:pageopacity="0"
     inkscape:pageshadow="2"
     inkscape:window-width="1366"
     inkscape:window-height="706"
     id="namedview4"
     showgrid="true"
     inkscape:snap-page="true"
     inkscape:snap-global="true"
     inkscape:zoom="11.313708"
     inkscape:cx="9.0700899"
     inkscape:cy="19.147732"
     inkscape:window-x="0"
     inkscape:window-y="0"
     inkscape:window-maximized="1"
     inkscape:current-layer="g2568"
     inkscape:snap-smooth-nodes="true"
     inkscape:snap-grids="false">
    <inkscape:grid
       type="xygrid"
       id="grid817"
       spacingx="0.5"
       spacingy="0.5"
       empspacing="2" />
  </sodipodi:namedview>
  <g
     id="g915"
     transform="matrix(0.25,0,0,0.25,-0.97598871,16.054114)">
    <g
       id="g2568">
      <path
         sodipodi:nodetypes="cccssccccccccc"
         inkscape:connector-curvature="0"
         id="rect3077"
         d="m 91.808594,-48.839841 h -0.002 l -76.810547,0.240235 c -4.577647,0.0022 -8.2824795,3.747105 -8.2832034,8.318359 L 6.6998784,41.59286 c -7.241e-4,4.572585 3.7145276,8.287109 8.2871096,8.287109 0.0013,2e-6 0.0026,2e-6 0.0039,0 L 120.89328,49.616298 c 4.57258,0 8.28711,-3.714526 8.28711,-8.28711 l -0.002,-13.640625 0.013,-47.90536 0.002,-20.328125 c 0,-4.572582 -3.70762,-8.318359 -8.28711,-8.318359 z"
         style="fill:#141414;fill-opacity:1;stroke:none;stroke-width:0.69999999;stroke-linecap:round;stroke-linejoin:round;stroke-miterlimit:4;stroke-dasharray:none;stroke-dashoffset:1.08780003;stroke-opacity:1;filter:url(#filter939)" />
      <path
         sodipodi:nodetypes="sscsscsssscccs"
         inkscape:connector-curvature="0"
         style="fill:#ffffff;fill-opacity:1;stroke:none;stroke-width:0.69999999;stroke-linecap:round;stroke-linejoin:round;stroke-miterlimit:4;stroke-dasharray:none;stroke-dashoffset:1.08780003;stroke-opacity:1"
         d="M 14.625,-48 C 10.95699,-47.987486 8,-45.043031 8,-41.375 L 7.903955,-8.216456 7.987035,41.28036 c 0.00616,3.668025 2.95698,6.634065 6.625,6.625 l 49.29192,-0.121816 57.364325,-0.141515 c 3.66802,-0.009 6.62443,-2.95697 6.625,-6.625 l 0.013,-82.65536 c 5.8e-4,-3.668031 -2.95697,-6.625 -6.625,-6.625 h -9.375 -8 -12.096075 z"
         id="rect2484" />
      <path
         sodipodi:nodetypes="cccssccsssc"
         inkscape:connector-curvature="0"
         id="rect3135"
         d="m 115.69727,-44.224609 -15.58008,0.0078 -85.857424,0.255859 c -1.278069,0.0038 -2.220507,0.943724 -2.220704,2.210938 l -0.01296,83.40536 c -1.97e-4,1.267223 0.944877,2.214022 2.203126,2.210938 L 121.63547,43.602626 c 1.27618,-0.0031 2.21856,-0.943712 2.21875,-2.210938 l 0.013,-83.40536 c 2e-4,-1.267225 -0.94371,-2.210937 -2.21094,-2.210937 z"
         style="fill:url(#radialGradient3726);fill-opacity:1;stroke:none;stroke-width:0.69999999;stroke-linecap:round;stroke-linejoin:round;stroke-miterlimit:4;stroke-dasharray:none;stroke-dashoffset:1.08780003;stroke-opacity:1" />
      <rect
         rx="3.9999988"
         ry="4.0000014"
         y="-36.216457"
         x="15.903955"
         height="72"
         width="104"
         id="rect2326"
         style="opacity:1;fill:#8c8c8c;fill-opacity:1;stroke:none;stroke-width:4;stroke-linecap:square;stroke-linejoin:round;stroke-miterlimit:4;stroke-dasharray:none;stroke-dashoffset:0;stroke-opacity:1" />
      <rect
         style="opacity:1;fill:url(#linearGradient2336);fill-opacity:1;stroke:none;stroke-width:4;stroke-linecap:square;stroke-linejoin:round;stroke-miterlimit:4;stroke-dasharray:none;stroke-dashoffset:0;stroke-opacity:1"
         id="rect2328"
         width="100"
         height="68"
         x="17.903955"
         y="-34.216457"
         ry="4.0000014"
         rx="3.9999988" />
      <path
         style="opacity:1;fill:url(#radialGradient957);fill-opacity:1;stroke:none;stroke-width:4;stroke-linecap:square;stroke-linejoin:round;stroke-miterlimit:4;stroke-dasharray:none;stroke-dashoffset:0;stroke-opacity:1"
         d="m 67.903955,-0.216456 v -34 l 46.000005,-10e-7 c 2.216,0 4,1.784 4,4.000001 v 59.999997 c 0,2.216001 -1.784,4.000002 -4,4.000002 l -2.00001,10e-7 z"
         id="rect953"
         inkscape:connector-curvature="0"
         sodipodi:nodetypes="ccsssscc" />
      <path
         style="opacity:1;fill:#ffa800;fill-opacity:1;stroke:none;stroke-width:1.72727287;stroke-linecap:square;stroke-linejoin:round;stroke-miterlimit:4;stroke-dasharray:none;stroke-dashoffset:0;stroke-opacity:1"
         d="M 7.5,13.5 6,20 8.3734674,18.714806 c 1.4976056,2.996446 4.3238146,5.196757 8.1486296,5.200942 1.57523,-3.09e-4 5.843138,-1.028237 6.897748,-2.183729 L 20.477903,19.466854 C 19.746937,19.781311 17.308675,20.498039 16.5,20.5 14.185445,20.497845 12.200715,19.179366 11.398438,17.300781 L 14,16 Z"
         transform="matrix(4,0,0,4,3.9039548,-64.216456)"
         id="ellipse973"
         inkscape:connector-curvature="0"
         sodipodi:nodetypes="cccccccccc" />
    </g>
  </g>
</svg>
